static/assets/img/icons/theme/shopping/settings.svg

<svg width="24px" height="24px" viewBox="0 0 24 24" version="1.1" xmlns="http://www.w3.org/2000/svg" xmlns:xlink="http://www.w3.org/1999/xlink">
    <title>Icon For Settings</title>
    <g stroke="none" stroke-width="1" fill="none" fill-rule="evenodd">
        <rect opacity="0" x="0" y="0" width="24" height="24"></rect>
        <path d="M4.5,7 L9.5,7 C10.3284271,7 11,7.67157288 11,8.5 C11,9.32842712 10.3284271,10 9.5,10 L4.5,10 C3.67157288,10 3,9.32842712 3,8.5 C3,7.67157288 3.67157288,7 4.5,7 Z M13.5,15 L18.5,15 C19.3284271,15 20,15.6715729 20,16.5 C20,17.3284271 19.3284271,18 18.5,18 L13.5,18 C12.6715729,18 12,17.3284271 12,16.5 C12,15.6715729 12.6715729,15 13.5,15 Z" fill="#000000" opacity="0.3"></path>
        <path d="M17,11 C15.3431458,11 14,9.65685425 14,8 C14,6.34314575 15.3431458,5 17,5 C18.6568542,5 20,6.34314575 20,8 C20,9.65685425 18.6568542,11 17,11 Z M6,19 C4.34314575,19 3,17.6568542 3,16 C3,14.3431458 4.34314575,13 6,13 C7.65685425,13 9,14.3431458 9,16 C9,17.6568542 7.65685425,19 6,19 Z" fill="#000000"></path>
    </g>
</svg>

<svg height="24" viewBox="0 0 24 24" width="24" xmlns="http://www.w3.org/2000/svg"><g fill="none" fill-rule="evenodd"><path d="m0 0h24v24h-24z" opacity="0"/><g fill="#000"><path d="m4.5 7h5c.8284271 0 1.5.67157288 1.5 1.5s-.6715729 1.5-1.5 1.5h-5c-.82842712 0-1.5-.67157288-1.5-1.5s.67157288-1.5 1.5-1.5zm9 8h5c.8284271 0 1.5.6715729 1.5 1.5s-.6715729 1.5-1.5 1.5h-5c-.8284271 0-1.5-.6715729-1.5-1.5s.6715729-1.5 1.5-1.5z" opacity=".3"/><path d="m17 11c-1.6568542 0-3-1.34314575-3-3s1.3431458-3 3-3 3 1.34314575 3 3-1.3431458 3-3 3zm-11 8c-1.65685425 0-3-1.3431458-3-3s1.34314575-3 3-3 3 1.3431458 3 3-1.34314575 3-3 3z"/></g></g></svg>
